img/router.svg

<?xml version="1.0" encoding="UTF-8"?>
<svg width="48px" height="46px" viewBox="0 0 48 46" version="1.1" xmlns="http://www.w3.org/2000/svg" xmlns:xlink="http://www.w3.org/1999/xlink">
    <!-- Generator: Sketch 51.2 (57519) - http://www.bohemiancoding.com/sketch -->
    <title>router</title>
    <desc>Created with Sketch.</desc>
    <defs></defs>
    <g id="Events" stroke="none" stroke-width="1" fill="none" fill-rule="evenodd">
        <g id="Assets" transform="translate(-46.000000, -326.000000)">
            <g id="Icons-/-Router" transform="translate(44.000000, 323.000000)">
                <g id="Icon" fill="#D8D8D8" fill-opacity="0">
                    <circle id="Oval" cx="26" cy="26" r="26"></circle>
                </g>
                <g id="009-wifi" transform="translate(2.000000, 3.000000)" fill="#333333" fill-rule="nonzero">
                    <path d="M42.593402,22.4160635 L15.4021437,22.4160635 L15.4021437,10.5826838 C17.1217984,9.97090755 18.1094099,8.1660635 17.6972439,6.38794541 C17.2854955,4.60940985 15.6050946,3.42260579 13.791481,3.62931517 C11.9774498,3.83602445 10.6073218,5.37026726 10.6060691,7.19599109 C10.608157,8.8183463 11.6972439,10.2385858 13.264059,10.6611915 L13.264059,22.4160635 L6.80679287,22.4160635 C3.85648666,22.4194043 1.46492205,24.8105512 1.46158129,27.7612751 L1.46158129,38.7231347 C1.46158129,39.313196 1.94056239,39.792177 2.53062361,39.792177 L5.99624167,39.792177 L5.99624167,44.2888363 C5.99624167,44.8788976 6.47522266,45.3578786 7.06528399,45.3578786 L41.8308742,45.3578786 C42.4209354,45.3578786 42.8999165,44.8788976 42.8999165,44.2888363 L42.8999165,39.792177 L46.8691537,39.792177 C47.4596325,39.792177 47.938196,39.313196 47.938196,38.7231347 L47.938196,27.7612751 C47.9348552,24.8105512 45.5441259,22.4194043 42.593402,22.4160635 Z M12.7441537,7.19599109 C12.7441537,6.39504449 13.3935133,5.74568488 14.1944599,5.74568488 C14.9954064,5.74568488 15.6443486,6.39504449 15.6443486,7.19599109 C15.6443486,7.99693769 14.9954064,8.6462973 14.1944599,8.6462973 C13.3939309,8.6450446 12.7449889,7.99652002 12.7441537,7.19599109 Z M40.7618319,43.219794 L8.13432631,43.219794 L8.13432631,39.792177 L40.7618319,39.792177 L40.7618319,43.219794 Z M45.8005289,37.6540924 L3.59966592,37.6540924 L3.59966592,27.7612751 C3.6013363,25.9906737 5.03619154,24.5562361 6.80679287,24.5541481 L42.593402,24.5541481 C44.3635857,24.5562361 45.798441,25.9906737 45.8005289,27.7612751 L45.8005289,37.6540924 Z" id="Shape"></path>
                    <path d="M10.6227729,28.0193485 C10.032294,28.0193485 9.55373057,28.4979121 9.55373057,29.0883908 L9.55373057,33.1185969 C9.55373057,33.7090757 10.032294,34.1876392 10.6227729,34.1876392 C11.2132517,34.1876392 11.6918152,33.7090757 11.6918152,33.1185969 L11.6918152,29.0883908 C11.6918152,28.4979121 11.2132517,28.0193485 10.6227729,28.0193485 Z" id="Shape"></path>
                    <path d="M37.0264476,27.3390869 C35.1000835,27.3390869 33.5386971,28.9004733 33.5386971,30.8264198 C33.5386971,32.752784 35.1000835,34.3141704 37.0264476,34.3141704 C38.9097996,34.3141704 40.4415367,32.7995546 40.5129455,30.8660913 C40.5129455,30.8527282 40.5137806,30.8397829 40.5137806,30.8264198 C40.5116927,28.9013084 38.951559,27.3411748 37.0264476,27.3390869 Z M37.0264476,32.1760858 C36.2835468,32.1760858 35.6805401,31.5760023 35.6767817,30.8331014 C35.6734409,30.0902004 36.2706013,29.4842706 37.0135023,29.4771715 C37.7559855,29.4700724 38.3648386,30.0643095 38.375696,30.8072104 C38.3372773,31.5764198 37.7484688,32.1765033 37.0264476,32.1765033 L37.0264476,32.1760858 Z" id="Shape"></path>
                    <path d="M16.8520323,28.0193485 C16.2619711,28.0193485 15.78299,28.4979121 15.78299,29.0883908 L15.78299,33.1185969 C15.78299,33.7090757 16.2619711,34.1876392 16.8520323,34.1876392 C17.4425111,34.1876392 17.9210746,33.7090757 17.9210746,33.1185969 L17.9210746,29.0883908 C17.9210746,28.4979121 17.4425111,28.0193485 16.8520323,28.0193485 Z" id="Shape"></path>
                    <path d="M7.53257244,11.4896993 C7.96520039,11.4896993 8.35481629,11.2291202 8.52060134,10.8298998 C8.68596882,10.4302617 8.59451556,9.97048998 8.28841871,9.66439312 C6.7913419,8.15979955 6.7913419,5.72814585 8.28841871,4.22313472 C8.56528399,3.95462143 8.67636412,3.55748889 8.57822945,3.18457678 C8.48009468,2.81124722 8.18861356,2.51976609 7.81570156,2.422049 C7.44237199,2.32391423 7.04523945,2.43457689 6.77672606,2.71144207 C4.44487751,5.05122494 4.44487751,8.83672046 6.77672606,11.1765033 C6.97717149,11.3773663 7.24902564,11.490117 7.53257244,11.4896993 Z" id="Shape"></path>
                    <path d="M3.44515585,13.7568207 C3.87778402,13.7568207 4.2673998,13.4962417 4.43276729,13.0970212 C4.59855234,12.6973831 4.50709908,12.2376113 4.20100223,11.931932 C1.44487751,9.17538976 1.44738302,4.65242202 4.2068485,1.84910913 C4.47953789,1.57767255 4.58518931,1.18095768 4.48413135,0.81013363 C4.38265593,0.439309577 4.09033967,0.151169212 3.71784524,0.0559577372 C3.34535081,-0.039253951 2.95030621,0.0726615234 2.6834632,0.349109131 C-0.896575751,3.98635852 -0.894070129,9.86024499 2.68930958,13.4436247 C2.88933744,13.6444877 3.16160916,13.7572383 3.44515585,13.7568207 Z" id="Shape"></path>
                </g>
            </g>
        </g>
    </g>
</svg>

<svg xmlns="http://www.w3.org/2000/svg" xmlns:xlink="http://www.w3.org/1999/xlink" width="48" height="46"><g fill-rule="evenodd"><circle cx="24" cy="23" r="26" fill="#d8d8d8" fill-opacity="0"/><g fill="#333" fill-rule="nonzero"><path d="M42.593 22.416h-27.19V10.583a3.59 3.59 0 0 0-1.611-6.953c-1.814.207-3.184 1.74-3.185 3.567.002 1.622 1.09 3.043 2.658 3.465v11.755H6.807c-2.95.003-5.342 2.394-5.345 5.345v10.962a1.07 1.07 0 0 0 1.069 1.069h3.466v4.497a1.07 1.07 0 0 0 1.069 1.069H41.83a1.07 1.07 0 0 0 1.069-1.069v-4.497h3.97a1.07 1.07 0 0 0 1.069-1.069V27.76a5.35 5.35 0 0 0-5.345-5.345zm-29.85-15.22a1.45 1.45 0 1 1 2.9 0 1.45 1.45 0 0 1-1.45 1.45c-.8-.001-1.45-.65-1.45-1.45zM40.762 43.22H8.134v-3.428h32.628v3.428zm5.04-5.566H3.6V27.76a3.21 3.21 0 0 1 3.207-3.207h35.787a3.21 3.21 0 0 1 3.207 3.207v9.893z"/><use xlink:href="#B"/><path d="M37.026 27.34a3.49 3.49 0 0 0-3.488 3.487 3.49 3.49 0 0 0 3.488 3.488c1.883 0 3.415-1.515 3.486-3.448l.001-.04a3.49 3.49 0 0 0-3.487-3.487zm0 4.837a1.35 1.35 0 0 1-1.35-1.343 1.35 1.35 0 0 1 1.337-1.356 1.35 1.35 0 0 1 1.362 1.33c-.038.77-.627 1.37-1.35 1.37h0z"/><use xlink:href="#B" x="6.229"/><path d="M7.533 11.5a1.07 1.07 0 0 0 .756-1.825 3.86 3.86 0 0 1 0-5.441 1.07 1.07 0 0 0-.473-1.801 1.07 1.07 0 0 0-1.039.289 6 6 0 0 0 0 8.465c.2.2.472.314.756.313zm-4.088 2.257a1.07 1.07 0 0 0 .756-1.825c-2.756-2.757-2.754-7.28.006-10.083A1.07 1.07 0 0 0 3.718.056a1.07 1.07 0 0 0-1.034.293c-3.58 3.637-3.578 9.5.006 13.095.2.2.472.314.756.313z"/></g></g><defs ><path id="B" d="M10.623 28.02a1.07 1.07 0 0 0-1.069 1.069v4.03a1.07 1.07 0 0 0 1.069 1.069 1.07 1.07 0 0 0 1.069-1.069v-4.03a1.07 1.07 0 0 0-1.069-1.069z"/></defs></svg>
